packages/foundations/assets/icons/functional/images/human/shower.svg

<svg xmlns="http://www.w3.org/2000/svg" width="32" height="32" fill="none"><path fill="#1A1C1F" fill-rule="evenodd" d="M23.067 2.102c-.199.089-.429.33-.504.528-.034.092-.056.684-.056 1.528v1.379l-.28.035c-1.127.14-2.527.489-3.107.774-.205.1-.366.225-.448.347-.152.226-.204.629-.115.897.11.335.597.675.966.676.046.001.298-.072.56-.161 1.135-.385 1.922-.531 3.067-.57.902-.03 1.581.021 2.332.177.368.076.578.134 1.611.446.348.105.43.113.63.059.287-.078.625-.377.707-.627.088-.268.037-.671-.115-.897-.082-.122-.244-.247-.448-.347-.58-.285-1.98-.634-3.107-.774l-.28-.035V4.158c0-.844-.022-1.436-.057-1.528a1.08 1.08 0 0 0-.515-.53c-.216-.092-.632-.091-.841.002m-2.987 7.987c-.151.083-.399.319-.466.443-.371.685.198 1.53.979 1.455.969-.093 1.228-1.414.364-1.855-.229-.117-.701-.14-.877-.043m5.922.059a.975.975 0 0 0-.226 1.525c.555.586 1.476.338 1.686-.454.033-.121.049-.253.036-.293a4 4 0 0 1-.054-.218c-.039-.178-.313-.499-.516-.604-.229-.119-.676-.097-.926.044M8.9 11.039a5.5 5.5 0 0 0-2.283.867c-.41.276-1.13 1.055-1.411 1.524a5.4 5.4 0 0 0-.682 2.025c-.122 1.043.128 2.184.682 3.118.35.588 1.127 1.364 1.715 1.714a5 5 0 0 0 4.184.439c.759-.26 1.305-.605 1.907-1.207s.948-1.148 1.207-1.907a4.91 4.91 0 0 0-1.152-5.08c-.509-.518-.745-.692-1.379-1.011-.783-.395-1.914-.59-2.788-.482m14.281.026c-.681.243-.9 1.079-.418 1.595.176.188.515.351.73.351.346 0 .805-.323.93-.654a1.16 1.16 0 0 0-.015-.746c-.095-.228-.409-.498-.66-.568-.255-.071-.315-.068-.567.022M10.513 13.19c.866.328 1.449.908 1.793 1.782.127.323.142.432.142 1.028s-.015.705-.142 1.028c-.476 1.211-1.549 1.959-2.813 1.959-1.263 0-2.336-.748-2.812-1.959-.127-.323-.142-.432-.142-1.028 0-.592.016-.706.139-1.02.396-1.008 1.187-1.696 2.202-1.916.401-.087 1.244-.022 1.633.126m8.554-.088c-.364.192-.56.508-.56.899 0 .554.432.986.987.986A.974.974 0 0 0 20.48 14c0-.257-.134-.58-.301-.727-.297-.26-.797-.337-1.112-.171m8 0c-.364.192-.56.508-.56.899 0 .554.432.986.987.986A.974.974 0 0 0 28.48 14c0-.257-.134-.58-.301-.727-.297-.26-.797-.337-1.112-.171m-4.001.999c-.227.099-.494.422-.537.648-.091.487.123.944.538 1.144a.97.97 0 0 0 1.306-.453.99.99 0 0 0-.43-1.32c-.216-.11-.647-.119-.877-.019m-4.906 1.96c-.372.136-.669.576-.665.985.001.235.18.578.379.729.188.142.57.269.694.23.039-.013.138-.037.218-.055.182-.04.499-.314.61-.527.119-.232.112-.617-.017-.867-.219-.423-.785-.653-1.219-.495m9.914.041c-.503.228-.72.881-.458 1.372.092.171.423.441.585.476.08.018.178.042.218.055s.172-.004.293-.036c.772-.205 1.038-1.127.479-1.66-.321-.305-.732-.382-1.117-.207m-5.007 1c-.492.26-.687.784-.478 1.284.158.38.491.601.905.601A.974.974 0 0 0 24.48 18c0-.257-.134-.58-.301-.727-.297-.26-.797-.337-1.112-.171m-17.44 6.026c-1.131.242-2.169 1.06-2.689 2.121-.365.744-.391.901-.417 2.493-.022 1.327-.016 1.438.082 1.659.057.131.186.299.285.375.174.133.58.262.705.224.033-.01.126-.032.206-.05a1 1 0 0 0 .336-.199c.36-.316.367-.346.397-1.911l.028-1.413.183-.337a1.98 1.98 0 0 1 1.418-1.028c.173-.032 1.558-.047 3.53-.037l3.245.015.357.176c.623.306 1.039.838 1.156 1.474.032.174.058.814.058 1.423 0 .651.023 1.169.056 1.257.093.245.373.493.649.575.47.14 1.007-.105 1.195-.543.11-.257.102-2.844-.01-3.322-.324-1.379-1.534-2.571-2.979-2.934-.4-.101-.599-.106-3.92-.102-2.889.004-3.563.019-3.871.084"/></svg>

<svg width="32" height="32" viewBox="0 0 32 32" fill="none" xmlns="http://www.w3.org/2000/svg"><path d="M23.067 2.102 C 22.868 2.191,22.638 2.432,22.563 2.630 C 22.529 2.722,22.507 3.314,22.507 4.158 L 22.507 5.537 22.227 5.572 C 21.100 5.712,19.700 6.061,19.120 6.346 C 18.915 6.446,18.754 6.571,18.672 6.693 C 18.520 6.919,18.468 7.322,18.557 7.590 C 18.667 7.925,19.154 8.265,19.523 8.266 C 19.569 8.267,19.821 8.194,20.083 8.105 C 21.218 7.720,22.005 7.574,23.150 7.535 C 24.052 7.505,24.731 7.556,25.482 7.712 C 25.850 7.788,26.060 7.846,27.093 8.158 C 27.441 8.263,27.523 8.271,27.723 8.217 C 28.010 8.139,28.348 7.840,28.430 7.590 C 28.518 7.322,28.467 6.919,28.315 6.693 C 28.233 6.571,28.071 6.446,27.867 6.346 C 27.287 6.061,25.887 5.712,24.760 5.572 L 24.480 5.537 24.480 4.158 C 24.480 3.314,24.458 2.722,24.423 2.630 C 24.346 2.426,24.116 2.189,23.908 2.100 C 23.692 2.008,23.276 2.009,23.067 2.102 M20.080 10.089 C 19.929 10.172,19.681 10.408,19.614 10.532 C 19.243 11.217,19.812 12.062,20.593 11.987 C 21.562 11.894,21.821 10.573,20.957 10.132 C 20.728 10.015,20.256 9.992,20.080 10.089 M26.002 10.148 C 25.446 10.463,25.336 11.209,25.776 11.673 C 26.331 12.259,27.252 12.011,27.462 11.219 C 27.495 11.098,27.511 10.966,27.498 10.926 C 27.486 10.886,27.461 10.788,27.444 10.708 C 27.405 10.530,27.131 10.209,26.928 10.104 C 26.699 9.985,26.252 10.007,26.002 10.148 M8.900 11.039 C 8.136 11.134,7.279 11.460,6.617 11.906 C 6.207 12.182,5.487 12.961,5.206 13.430 C 4.862 14.007,4.605 14.770,4.524 15.455 C 4.402 16.498,4.652 17.639,5.206 18.573 C 5.556 19.161,6.333 19.937,6.921 20.287 C 8.193 21.043,9.714 21.202,11.105 20.726 C 11.864 20.466,12.410 20.121,13.012 19.519 C 13.614 18.917,13.960 18.371,14.219 17.612 C 14.834 15.816,14.396 13.887,13.067 12.532 C 12.558 12.014,12.322 11.840,11.688 11.521 C 10.905 11.126,9.774 10.931,8.900 11.039 M23.181 11.065 C 22.500 11.308,22.281 12.144,22.763 12.660 C 22.939 12.848,23.278 13.011,23.493 13.011 C 23.839 13.011,24.298 12.688,24.423 12.357 C 24.501 12.150,24.494 11.818,24.408 11.611 C 24.313 11.383,23.999 11.113,23.748 11.043 C 23.493 10.972,23.433 10.975,23.181 11.065 M10.513 13.190 C 11.379 13.518,11.962 14.098,12.306 14.972 C 12.433 15.295,12.448 15.404,12.448 16.000 C 12.448 16.596,12.433 16.705,12.306 17.028 C 11.830 18.239,10.757 18.987,9.493 18.987 C 8.230 18.987,7.157 18.239,6.681 17.028 C 6.554 16.705,6.539 16.596,6.539 16.000 C 6.539 15.408,6.555 15.294,6.678 14.980 C 7.074 13.972,7.865 13.284,8.880 13.064 C 9.281 12.977,10.124 13.042,10.513 13.190 M19.067 13.102 C 18.703 13.294,18.507 13.610,18.507 14.001 C 18.507 14.555,18.939 14.987,19.494 14.987 C 20.048 14.987,20.480 14.555,20.480 14.000 C 20.480 13.743,20.346 13.420,20.179 13.273 C 19.882 13.013,19.382 12.936,19.067 13.102 M27.067 13.102 C 26.703 13.294,26.507 13.610,26.507 14.001 C 26.507 14.555,26.939 14.987,27.494 14.987 C 28.048 14.987,28.480 14.555,28.480 14.000 C 28.480 13.743,28.346 13.420,28.179 13.273 C 27.882 13.013,27.382 12.936,27.067 13.102 M23.066 14.101 C 22.839 14.200,22.572 14.523,22.529 14.749 C 22.438 15.236,22.652 15.693,23.067 15.893 C 23.557 16.131,24.136 15.930,24.373 15.440 C 24.612 14.947,24.422 14.364,23.943 14.120 C 23.727 14.010,23.296 14.001,23.066 14.101 M18.160 16.061 C 17.788 16.197,17.491 16.637,17.495 17.046 C 17.496 17.281,17.675 17.624,17.874 17.775 C 18.062 17.917,18.444 18.044,18.568 18.005 C 18.607 17.992,18.706 17.968,18.786 17.950 C 18.968 17.910,19.285 17.636,19.396 17.423 C 19.515 17.191,19.508 16.806,19.379 16.556 C 19.160 16.133,18.594 15.903,18.160 16.061 M28.074 16.102 C 27.571 16.330,27.354 16.983,27.616 17.474 C 27.708 17.645,28.039 17.915,28.201 17.950 C 28.281 17.968,28.379 17.992,28.419 18.005 C 28.459 18.017,28.591 18.001,28.712 17.969 C 29.484 17.764,29.750 16.842,29.191 16.309 C 28.870 16.004,28.459 15.927,28.074 16.102 M23.067 17.102 C 22.575 17.362,22.380 17.886,22.589 18.386 C 22.747 18.766,23.080 18.987,23.494 18.987 C 24.048 18.987,24.480 18.555,24.480 18.000 C 24.480 17.743,24.346 17.420,24.179 17.273 C 23.882 17.013,23.382 16.936,23.067 17.102 M5.627 23.128 C 4.496 23.370,3.458 24.188,2.938 25.249 C 2.573 25.993,2.547 26.150,2.521 27.742 C 2.499 29.069,2.505 29.180,2.603 29.401 C 2.660 29.532,2.789 29.700,2.888 29.776 C 3.062 29.909,3.468 30.038,3.593 30.000 C 3.626 29.990,3.719 29.968,3.799 29.950 C 3.879 29.933,4.030 29.843,4.135 29.751 C 4.495 29.435,4.502 29.405,4.532 27.840 L 4.560 26.427 4.743 26.090 C 5.042 25.537,5.540 25.177,6.161 25.062 C 6.334 25.030,7.719 25.015,9.691 25.025 L 12.936 25.040 13.293 25.216 C 13.916 25.522,14.332 26.054,14.449 26.690 C 14.481 26.864,14.507 27.504,14.507 28.113 C 14.507 28.764,14.530 29.282,14.563 29.370 C 14.656 29.615,14.936 29.863,15.212 29.945 C 15.682 30.085,16.219 29.840,16.407 29.402 C 16.517 29.145,16.509 26.558,16.397 26.080 C 16.073 24.701,14.863 23.509,13.418 23.146 C 13.018 23.045,12.819 23.040,9.498 23.044 C 6.609 23.048,5.935 23.063,5.627 23.128 " fill="#1A1C1F" stroke="none" fill-rule="evenodd"></path></svg>
